icons/bigquery-dark.svg

<svg width="256" height="256" viewBox="0 0 256 256" fill="none" xmlns="http://www.w3.org/2000/svg">
<rect width="256" height="256" rx="60" fill="#282828"/>
<path d="M71.9508 207.94L30.9557 136.932C29.3795 134.202 28.5497 131.105 28.5497 127.953C28.5497 124.801 29.3795 121.704 30.9557 118.974L71.9508 47.9672C73.5272 45.2368 75.7945 42.9695 78.525 41.3932C81.2554 39.8169 84.3527 38.9872 87.5055 38.9874H169.496C172.648 38.9874 175.745 39.8173 178.475 41.3936C181.205 42.9699 183.473 45.2371 185.049 47.9672L226.044 118.974C227.62 121.704 228.45 124.801 228.45 127.954C228.45 131.106 227.62 134.203 226.044 136.934L185.049 207.94C183.472 210.67 181.205 212.937 178.475 214.513C175.745 216.089 172.648 216.919 169.496 216.919H87.5055C84.3527 216.919 81.2553 216.089 78.5249 214.513C75.7944 212.937 73.527 210.671 71.9508 207.94Z" fill="#4683EA"/>
<path opacity="0.075" d="M214.753 163.061L154.464 102.769L128.501 95.8214L105.179 104.489L96.173 127.954L103.415 154.08L167.348 218.013L180.915 217.41L214.753 163.061Z" fill="#000000"/>
<path d="M128.501 91.7281C108.495 91.7281 92.2765 107.947 92.2765 127.954C92.2765 147.959 108.495 164.178 128.501 164.178C148.506 164.178 164.723 147.959 164.723 127.954C164.723 107.947 148.505 91.7281 128.501 91.7281ZM128.501 155.438C113.321 155.438 101.014 143.132 101.014 127.952C101.014 112.772 113.321 100.467 128.501 100.467C143.68 100.467 155.987 112.774 155.987 127.954C155.987 143.134 143.68 155.438 128.501 155.438Z" fill="#FFFFFF"/>
<path d="M111.306 126.554V137.814C112.972 140.675 115.323 143.076 118.146 144.803V126.554H111.306ZM124.87 117.062V147.377C126.033 147.591 127.223 147.72 128.446 147.72C129.561 147.72 130.648 147.603 131.715 147.425V117.062H124.87ZM139.067 131.233V144.605C141.936 142.781 144.291 140.254 145.911 137.265V131.235L139.067 131.233ZM154.567 150.266L150.814 154.022C150.497 154.34 150.318 154.772 150.318 155.222C150.318 155.672 150.497 156.104 150.814 156.422L165.049 170.653C165.368 170.97 165.8 171.149 166.25 171.149C166.7 171.149 167.131 170.97 167.45 170.653L171.203 166.901C171.518 166.582 171.696 166.151 171.696 165.702C171.696 165.253 171.518 164.822 171.203 164.503L156.966 150.266C156.647 149.949 156.216 149.772 155.767 149.772C155.317 149.772 154.886 149.949 154.567 150.266Z" fill="#FFFFFF"/>
</svg>

<svg xmlns="http://www.w3.org/2000/svg" width="256" height="256" fill="none"><rect width="256" height="256" fill="#282828" rx="60"/><path fill="#4683EA" d="m71.95 207.94-40.994-71.008a17.96 17.96 0 0 1 0-17.958L71.95 47.967a17.96 17.96 0 0 1 15.555-8.98h81.99a17.96 17.96 0 0 1 15.553 8.98l40.995 71.007a17.96 17.96 0 0 1 0 17.96l-40.995 71.006a17.97 17.97 0 0 1-15.553 8.979h-81.99a17.97 17.97 0 0 1-15.555-8.979"/><path fill="#000" d="m214.753 163.061-60.289-60.292-25.963-6.948-23.322 8.668-9.006 23.465 7.242 26.126 63.933 63.933 13.567-.603z" opacity=".075"/><path fill="#FFF" d="M128.501 91.728c-20.006 0-36.225 16.219-36.225 36.226 0 20.005 16.219 36.224 36.225 36.224 20.005 0 36.222-16.219 36.222-36.224 0-20.007-16.218-36.226-36.222-36.226m0 63.71c-15.18 0-27.487-12.306-27.487-27.486s12.307-27.485 27.487-27.485 27.486 12.307 27.486 27.487-12.307 27.484-27.486 27.484"/><path fill="#FFF" d="M111.306 126.554v11.26a20 20 0 0 0 6.84 6.989v-18.249zm13.564-9.492v30.315c1.163.214 2.353.343 3.576.343 1.115 0 2.202-.117 3.269-.295v-30.363zm14.197 14.171v13.372a20 20 0 0 0 6.844-7.34v-6.03zm15.5 19.033-3.753 3.756a1.7 1.7 0 0 0 0 2.4l14.235 14.231a1.703 1.703 0 0 0 2.401 0l3.753-3.752a1.71 1.71 0 0 0 0-2.398l-14.237-14.237a1.7 1.7 0 0 0-2.399 0"/></svg>
